X: 21667
T: Kilmovee, The
R: jig
M: 6/8
K: Gmajor
|:G3 BF/G/B|GAB AGE|DEG Bc/d/g|ege dBA|
G3 B3|df/g/d AGE|DEG Bc/d/g|1 edB G3:|2 edB GB/c/d||
|:g2B dBG|AGE GED|GB/c/d g3|eag fed|
B3 dBA|DBG AGE|DEG Bc/d/g|1 edB GB/c/d:|2 edB G3||

